X:262
%%etbk:tnset id:79,pos:2,rep:3x,ant:
%%etbk:wsite http://www.thesession.org/tunes/display/1395
%%etbk:pldat 2014-09-26T18:20,2014-05-20T16:26,2014-05-01T18:25,2014-02-16T16:00,2013-12-11T17:20,2013-11-19T15:34,2013-11-16T16:28,2013-05-01T15:36,2013-04-30T15:44
T: Goat on the Green
T: Frog In The Well, The
Z: Piano Box Version by Martin Fleischmann
H: Created 2013-02-19 /  Last Modified 2013-04-30
M: 6/8
L: 1/8
R: jig
K: Emin
|: "em"!1!E !3!(3E!2!E!1!E !3!GFE | !5!BEE !3!GFE | "D"!1!D !3!(3D!2!D!1!D !3!FED | !5!A2G !3!FE!1!D |
"em"!1!E !3!(3E!2!E!1!E !3!GFE | !5!BEE !3!GFE | "D"!5!BGB BA!2!F | "em"!3!G!1!EE E3:|
|: "em"!2!efe !1!B!4!g/!2!e/!1!B | !2!e!1!Be !3!fge | "D"!3!f!1!dd !5!add | !3!fdf !5!agf |
"em"!2!efe !1!B!4!g/!2!e/!1!B | !2!e!1!Be !3!fge | "D"!3!f!1!d!2!B !1!A!3!G!2!F |"em" !3!G!1!EE E3:|


